;FLAVOR:Marlin
;TIME:2847
;Filament used: 3.35102m
;Layer height: 0.2
;MINX:100.2
;MINY:100.2
;MINZ:0.2
;MAXX:119.8
;MAXY:119.8
;MAXZ:20
;TARGET_MACHINE.NAME:Creality Ender-3 Pro
;Generated with Cura_SteamEngine 5.8.1
M82 ;absolute extrusion mode
; Ender 3 Custom Start G-code
G92 E0 ; Reset Extruder
G28 ; Home all axes
G1 Z5.0 F3000 ; Move Z Axis up a bit during heating to not damage bed
M104 S175 ; Start heating up the nozzle most of the way
M190 S30.0 ; Start heating the bed, wait until target temperature reached
M109 S250.0 ; Finish heating the nozzle
G1 Z2.0 F3000 ; Move Z Axis up little to prevent scratching of Heat Bed
G1 X0.1 Y20 Z0.3 F5000.0 ; Move to start position
G1 X0.1 Y200.0 Z0.3 F1500.0 E15 ; Draw the first line
G1 X0.4 Y200.0 Z0.3 F5000.0 ; Move to side a little
G1 X0.4 Y20 Z0.3 F1500.0 E30 ; Draw the second line
G92 E0 ; Reset Extruder
G1 Z2.0 F3000 ; Move Z Axis up little to prevent scratching of Heat Bed
G1 X5 Y20 Z0.3 F5000.0 ; Move over to prevent blob squish
G92 E0
G92 E0
G1 F1500 E-6.5
;LAYER_COUNT:100
;LAYER:0
M107
;MESH:20mm_cube.stl
G0 F6000 X110 Y119.4 Z0.2
;TYPE:WALL-INNER
G1 F1500 E0
G1 F1200 X119.4 Y119.4 E0.31265
G1 X119.4 Y100.6 E0.93794
G1 X100.6 Y100.6 E1.56323
G1 X100.6 Y119.4 E2.18852
G1 X110 Y119.4 E2.50116
G0 F6000 X110 Y119.8
;TYPE:WALL-OUTER
G1 F1200 X119.8 Y119.8 E2.82711
G1 X119.8 Y100.2 E3.47901
G1 X100.2 Y100.2 E4.13091
G1 X100.2 Y119.8 E4.78281
G1 X110 Y119.8 E5.10876
G0 F6000 X110 Y119.04
;TYPE:SKIN
G1 F1200 X100.96 Y119.04 E5.40943
G1 X100.96 Y100.96 E6.01077
G1 X119.04 Y100.96 E6.61211
G1 X119.04 Y119.04 E7.21346
G1 X110 Y119.04 E7.51413
G0 F6000 X110 Y119.3
G0 X100.772 Y119.228
G0 X100.7 Y118.696
G0 X101.159 Y118.696
G1 F1200 X101.304 Y118.84 E7.52093
G0 F6000 X101.869 Y118.84
G1 F1200 X101.159 Y118.13 E7.55432
G0 F6000 X101.159 Y117.564
G1 F1200 X102.435 Y118.84 E7.61434
G0 F6000 X103.001 Y118.84
G1 F1200 X101.159 Y116.999 E7.70096
G0 F6000 X101.159 Y116.433
G1 F1200 X103.566 Y118.84 E7.81418
G0 F6000 X104.132 Y118.84
G1 F1200 X101.159 Y115.867 E7.95402
G0 F6000 X101.159 Y115.302
G1 F1200 X104.698 Y118.84 E8.12046
G0 F6000 X105.263 Y118.84
G1 F1200 X101.159 Y114.736 E8.3135
G0 F6000 X101.159 Y114.17
G1 F1200 X105.829 Y118.84 E8.53316
G0 F6000 X106.395 Y118.84
G1 F1200 X101.159 Y113.604 E8.77945
G0 F6000 X101.159 Y113.039
G1 F1200 X106.961 Y118.84 E9.05233
G0 F6000 X107.526 Y118.84
G1 F1200 X101.159 Y112.473 E9.35182
G0 F6000 X101.159 Y111.907
G1 F1200 X108.092 Y118.84 E9.67792
G0 F6000 X108.658 Y118.84
G1 F1200 X101.159 Y111.342 E10.03063
G0 F6000 X101.159 Y110.776
G1 F1200 X109.223 Y118.84 E10.40994
G0 F6000 X109.789 Y118.84
G1 F1200 X101.159 Y110.21 E10.81586
G0 F6000 X101.159 Y109.645
G1 F1200 X110.355 Y118.84 E11.24839
G0 F6000 X110.92 Y118.84
G1 F1200 X101.159 Y109.079 E11.70752
G0 F6000 X101.159 Y108.513
G1 F1200 X111.486 Y118.84 E12.19327
G0 F6000 X112.052 Y118.84
G1 F1200 X101.159 Y107.948 E12.70562
G0 F6000 X101.159 Y107.382
G1 F1200 X112.617 Y118.84 E13.24457
G0 F6000 X113.183 Y118.84
G1 F1200 X101.159 Y106.816 E13.81014
G0 F6000 X101.159 Y106.251
G1 F1200 X113.749 Y118.84 E14.40231
G0 F6000 X114.314 Y118.84
G1 F1200 X101.159 Y105.685 E15.02108
G0 F6000 X101.159 Y105.119
G1 F1200 X114.88 Y118.84 E15.66648
G0 F6000 X115.446 Y118.84
G1 F1200 X101.159 Y104.554 E16.33847
G0 F6000 X101.159 Y103.988
G1 F1200 X116.011 Y118.84 E17.03706
G0 F6000 X116.577 Y118.84
G1 F1200 X101.159 Y103.422 E17.76228
G0 F6000 X101.159 Y102.856
G1 F1200 X117.143 Y118.84 E18.51412
G0 F6000 X117.709 Y118.84
G1 F1200 X101.159 Y102.291 E19.29255
G0 F6000 X101.159 Y101.725
G1 F1200 X118.274 Y118.84 E20.09759
G0 F6000 X118.84 Y118.84
G1 F1200 X101.16 Y101.16 E20.9292
G0 F6000 X101.726 Y101.16
G1 F1200 X118.84 Y118.274 E21.73419
G0 F6000 X118.84 Y117.709
G1 F1200 X102.291 Y101.16 E22.51261
G0 F6000 X102.857 Y101.16
G1 F1200 X118.84 Y117.143 E23.2644
G0 F6000 X118.84 Y116.577
G1 F1200 X103.423 Y101.16 E23.98957
G0 F6000 X103.989 Y101.16
G1 F1200 X118.84 Y116.011 E24.68811
G0 F6000 X118.84 Y115.446
G1 F1200 X104.554 Y101.16 E25.36008
G0 F6000 X105.12 Y101.16
G1 F1200 X118.84 Y114.88 E26.00543
G0 F6000 X118.84 Y114.314
G1 F1200 X105.686 Y101.16 E26.62415
G0 F6000 X106.251 Y101.16
G1 F1200 X118.84 Y113.749 E27.2163
G0 F6000 X118.84 Y113.183
G1 F1200 X106.817 Y101.16 E27.78183
G0 F6000 X107.383 Y101.16
G1 F1200 X118.84 Y112.617 E28.32073
G0 F6000 X118.84 Y112.052
G1 F1200 X107.948 Y101.16 E28.83306
G0 F6000 X108.514 Y101.16
G1 F1200 X118.84 Y111.486 E29.31876
G0 F6000 X118.84 Y110.92
G1 F1200 X109.08 Y101.16 E29.77784
G0 F6000 X109.645 Y101.16
G1 F1200 X118.84 Y110.355 E30.21034
G0 F6000 X118.84 Y109.789
G1 F1200 X110.211 Y101.16 E30.61623
G0 F6000 X110.777 Y101.16
G1 F1200 X118.84 Y109.223 E30.99548
G0 F6000 X118.84 Y108.658
G1 F1200 X111.342 Y101.16 E31.34817
G0 F6000 X111.908 Y101.16
G1 F1200 X118.84 Y108.092 E31.67423
G0 F6000 X118.84 Y107.526
G1 F1200 X112.474 Y101.16 E31.97366
G0 F6000 X113.04 Y101.16
G1 F1200 X118.84 Y106.961 E32.2465
G0 F6000 X118.84 Y106.395
G1 F1200 X113.605 Y101.16 E32.49274
G0 F6000 X114.171 Y101.16
G1 F1200 X118.84 Y105.829 E32.71236
G0 F6000 X118.84 Y105.263
G1 F1200 X114.737 Y101.16 E32.90535
G0 F6000 X115.302 Y101.16
G1 F1200 X118.84 Y104.698 E33.07177
G0 F6000 X118.84 Y104.132
G1 F1200 X115.868 Y101.16 E33.21156
G0 F6000 X116.434 Y101.16
G1 F1200 X118.84 Y103.566 E33.32473
G0 F6000 X118.84 Y103.001
G1 F1200 X116.999 Y101.16 E33.41133
G0 F6000 X117.565 Y101.16
G1 F1200 X118.84 Y102.435 E33.4713
G0 F6000 X118.84 Y101.869
G1 F1200 X118.131 Y101.16 E33.50465
G0 F6000 X118.696 Y101.16
G1 F1200 X118.84 Y101.304 E33.51142
M104 S250
;MESH:NONMESH
G0 F300 X118.84 Y101.304 Z0.4
G0 F6000 X119.3 Y101.304
G0 X119.228 Y119.228
G0 X110 Y119.4
;TIME_ELAPSED:60.711842
;LAYER:1
;TYPE:WALL-INNER
;MESH:20mm_cube.stl
G1 F2400 X119.4 Y119.4 E33.82406
G1 X119.4 Y100.6 E34.44936
G1 X100.6 Y100.6 E35.07465
G1 X100.6 Y119.4 E35.69994
G1 X110 Y119.4 E36.01258
G0 F10500 X110 Y119.8
;TYPE:WALL-OUTER
G1 F2400 X119.8 Y119.8 E36.33853
G1 X119.8 Y100.2 E36.99043
G1 X100.2 Y100.2 E37.64233
G1 X100.2 Y119.8 E38.29423
G1 X110 Y119.8 E38.62018
G0 F10500 X110 Y119.04
;TYPE:SKIN
G1 F2400 X100.96 Y119.04 E38.92085
G1 X100.96 Y100.96 E39.52219
G1 X119.04 Y100.96 E40.12353
G1 X119.04 Y119.04 E40.72488
G1 X110 Y119.04 E41.02555
G0 F10500 X110 Y119.3
G0 X118.748 Y119.3
G0 X118.748 Y118.84
G1 F2400 X118.84 Y118.748 E41.02988
G0 F10500 X118.84 Y118.182
G1 F2400 X118.182 Y118.84 E41.06083
G0 F10500 X117.617 Y118.84
G1 F2400 X118.84 Y117.617 E41.11835
G0 F10500 X118.84 Y117.051
G1 F2400 X117.051 Y118.84 E41.2025
G0 F10500 X116.485 Y118.84
G1 F2400 X118.84 Y116.485 E41.31327
G0 F10500 X118.84 Y115.92
G1 F2400 X115.92 Y118.84 E41.45062
G0 F10500 X115.354 Y118.84
G1 F2400 X118.84 Y115.354 E41.61459
G0 F10500 X118.84 Y114.788
G1 F2400 X114.788 Y118.84 E41.80519
G0 F10500 X114.222 Y118.84
G1 F2400 X118.84 Y114.222 E42.0224
G0 F10500 X118.84 Y113.657
G1 F2400 X113.657 Y118.84 E42.2662
G0 F10500 X113.091 Y118.84
G1 F2400 X118.84 Y113.091 E42.53661
G0 F10500 X118.84 Y112.525
G1 F2400 X112.525 Y118.84 E42.83365
G0 F10500 X111.96 Y118.84
G1 F2400 X118.84 Y111.96 E43.15726
G0 F10500 X118.84 Y111.394
G1 F2400 X111.394 Y118.84 E43.5075
G0 F10500 X110.828 Y118.84
G1 F2400 X118.84 Y110.828 E43.88436
G0 F10500 X118.84 Y110.263
G1 F2400 X110.263 Y118.84 E44.2878
G0 F10500 X109.697 Y118.84
G1 F2400 X118.84 Y109.697 E44.71785
G0 F10500 X118.84 Y109.131
G1 F2400 X109.131 Y118.84 E45.17454
G0 F10500 X108.566 Y118.84
G1 F2400 X118.84 Y108.566 E45.65779
G0 F10500 X118.84 Y108
G1 F2400 X108 Y118.84 E46.16767
G0 F10500 X107.434 Y118.84
G1 F2400 X118.84 Y107.434 E46.70418
G0 F10500 X118.84 Y106.869
G1 F2400 X106.869 Y118.84 E47.26726
G0 F10500 X106.303 Y118.84
G1 F2400 X118.84 Y106.303 E47.85696
G0 F10500 X118.84 Y105.737
G1 F2400 X105.737 Y118.84 E48.47328
G0 F10500 X105.172 Y118.84
G1 F2400 X118.84 Y105.172 E49.11618
G0 F10500 X118.84 Y104.606
G1 F2400 X104.606 Y118.84 E49.78571
G0 F10500 X104.04 Y118.84
G1 F2400 X118.84 Y104.04 E50.48185
G0 F10500 X118.84 Y103.474
G1 F2400 X103.474 Y118.84 E51.20462
G0 F10500 X102.909 Y118.84
G1 F2400 X118.84 Y102.909 E51.95397
G0 F10500 X118.84 Y102.343
G1 F2400 X102.343 Y118.84 E52.72994
G0 F10500 X101.777 Y118.84
G1 F2400 X118.84 Y101.777 E53.53253
G0 F10500 X118.84 Y101.212
G1 F2400 X101.212 Y118.84 E54.3617
G0 F10500 X101.16 Y118.326
G1 F2400 X118.327 Y101.159 E55.16918
G0 F10500 X117.761 Y101.159
G1 F2400 X101.16 Y117.76 E55.95004
G0 F10500 X101.16 Y117.194
G1 F2400 X117.195 Y101.159 E56.70428
G0 F10500 X116.629 Y101.159
G1 F2400 X101.16 Y116.629 E57.43191
G0 F10500 X101.16 Y116.063
G1 F2400 X116.064 Y101.159 E58.13295
G0 F10500 X115.498 Y101.159
G1 F2400 X101.16 Y115.497 E58.80737
G0 F10500 X101.16 Y114.932
G1 F2400 X114.932 Y101.159 E59.45518
G0 F10500 X114.367 Y101.159
G1 F2400 X101.16 Y114.366 E60.0764
G0 F10500 X101.16 Y113.8
G1 F2400 X113.801 Y101.159 E60.671
G0 F10500 X113.235 Y101.159
G1 F2400 X101.16 Y113.235 E61.23899
G0 F10500 X101.16 Y112.669
G1 F2400 X112.67 Y101.159 E61.78038
G0 F10500 X112.104 Y101.159
G1 F2400 X101.16 Y112.103 E62.29516
G0 F10500 X101.16 Y111.538
G1 F2400 X111.538 Y101.159 E62.78333
G0 F10500 X110.973 Y101.159
G1 F2400 X101.16 Y110.972 E63.2449
G0 F10500 X101.16 Y110.406
G1 F2400 X110.407 Y101.159 E63.67985
G0 F10500 X109.841 Y101.159
G1 F2400 X101.16 Y109.841 E64.08821
G0 F10500 X101.16 Y109.275
G1 F2400 X109.276 Y101.159 E64.46996
G0 F10500 X108.71 Y101.159
G1 F2400 X101.16 Y108.709 E64.82509
G0 F10500 X101.16 Y108.143
G1 F2400 X108.144 Y101.159 E65.15359
G0 F10500 X107.579 Y101.159
G1 F2400 X101.16 Y107.578 E65.45552
G0 F10500 X101.16 Y107.012
G1 F2400 X107.013 Y101.159 E65.73083
G0 F10500 X106.447 Y101.159
G1 F2400 X101.16 Y106.446 E65.97951
G0 F10500 X101.16 Y105.881
G1 F2400 X105.881 Y101.159 E66.2016
G0 F10500 X105.316 Y101.159
G1 F2400 X101.16 Y105.315 E66.39708
G0 F10500 X101.16 Y104.749
G1 F2400 X104.75 Y101.159 E66.56595
G0 F10500 X104.184 Y101.159
G1 F2400 X101.16 Y104.184 E66.70821
G0 F10500 X101.16 Y103.618
G1 F2400 X103.619 Y101.159 E66.82387
G0 F10500 X103.053 Y101.159
G1 F2400 X101.16 Y103.052 E66.91291
G0 F10500 X101.16 Y102.487
G1 F2400 X102.487 Y101.159 E66.97536
G0 F10500 X101.922 Y101.159
G1 F2400 X101.16 Y101.921 E67.0112
G0 F10500 X101.16 Y101.355
G1 F2400 X101.356 Y101.159 E67.02042
;MESH:NONMESH
G0 F300 X101.356 Y101.159 Z0.6
G0 F10500 X101.356 Y100.7
G0 X100.772 Y100.772
G0 X100.772 Y119.228
G0 X110 Y119.4
;TIME_ELAPSED:94.449217
;LAYER:2
;TYPE:WALL-INNER
;MESH:20mm_cube.stl
G1 F3600 X119.4 Y119.4 E67.33306
G1 X119.4 Y100.6 E67.95835
G1 X100.6 Y100.6 E68.58364
G1 X100.6 Y119.4 E69.20893
G1 X110 Y119.4 E69.52158
G0 F15000 X110 Y119.8
;TYPE:WALL-OUTER
G1 F3600 X119.8 Y119.8 E69.84753
G1 X119.8 Y100.2 E70.49943
G1 X100.2 Y100.2 E71.15133
G1 X100.2 Y119.8 E71.80322
G1 X110 Y119.8 E72.12917
G0 F15000 X110 Y119.04
;TYPE:SKIN
G1 F3600 X100.96 Y119.04 E72.42985
G1 X100.96 Y100.96 E73.03119
G1 X119.04 Y100.96 E73.63253
G1 X119.04 Y119.04 E74.23388
G1 X110 Y119.04 E74.53455
G0 F15000 X110 Y119.3
G0 X100.772 Y119.228
G0 X100.7 Y118.696
G0 X101.159 Y118.696
G1 F3600 X101.304 Y118.84 E74.54134
G0 F15000 X101.869 Y118.84
G1 F3600 X101.159 Y118.13 E74.57474
G0 F15000 X101.159 Y117.564
G1 F3600 X102.435 Y118.84 E74.63476
G0 F15000 X103.001 Y118.84
G1 F3600 X101.159 Y116.999 E74.72138
G0 F15000 X101.159 Y116.433
G1 F3600 X103.566 Y118.84 E74.8346
G0 F15000 X104.132 Y118.84
G1 F3600 X101.159 Y115.867 E74.97444
G0 F15000 X101.159 Y115.302
G1 F3600 X104.698 Y118.84 E75.14088
G0 F15000 X105.263 Y118.84
G1 F3600 X101.159 Y114.736 E75.33392
G0 F15000 X101.159 Y114.17
G1 F3600 X105.829 Y118.84 E75.55358
G0 F15000 X106.395 Y118.84
G1 F3600 X101.159 Y113.604 E75.79986
G0 F15000 X101.159 Y113.039
G1 F3600 X106.961 Y118.84 E76.07275
G0 F15000 X107.526 Y118.84
G1 F3600 X101.159 Y112.473 E76.37223
G0 F15000 X101.159 Y111.907
G1 F3600 X108.092 Y118.84 E76.69834
G0 F15000 X108.658 Y118.84
G1 F3600 X101.159 Y111.342 E77.05105
G0 F15000 X101.159 Y110.776
G1 F3600 X109.223 Y118.84 E77.43035
G0 F15000 X109.789 Y118.84
G1 F3600 X101.159 Y110.21 E77.83628
G0 F15000 X101.159 Y109.645
G1 F3600 X110.355 Y118.84 E78.26881
G0 F15000 X110.92 Y118.84
G1 F3600 X101.159 Y109.079 E78.72794
G0 F15000 X101.159 Y108.513
G1 F3600 X111.486 Y118.84 E79.21369
G0 F15000 X112.052 Y118.84
G1 F3600 X101.159 Y107.948 E79.72604
G0 F15000 X101.159 Y107.382
G1 F3600 X112.617 Y118.84 E80.26499
G0 F15000 X113.183 Y118.84
G1 F3600 X101.159 Y106.816 E80.83056
G0 F15000 X101.159 Y106.251
G1 F3600 X113.749 Y118.84 E81.42273
G0 F15000 X114.314 Y118.84
G1 F3600 X101.159 Y105.685 E82.0415
G0 F15000 X101.159 Y105.119
G1 F3600 X114.88 Y118.84 E82.68689
G0 F15000 X115.446 Y118.84
G1 F3600 X101.159 Y104.554 E83.35889
G0 F15000 X101.159 Y103.988
G1 F3600 X116.011 Y118.84 E84.05748
G0 F15000 X116.577 Y118.84
G1 F3600 X101.159 Y103.422 E84.7827
G0 F15000 X101.159 Y102.856
G1 F3600 X117.143 Y118.84 E85.53453
G0 F15000 X117.709 Y118.84
G1 F3600 X101.159 Y102.291 E86.31297
G0 F15000 X101.159 Y101.725
G1 F3600 X118.274 Y118.84 E87.11801
G0 F15000 X118.84 Y118.84
G1 F3600 X101.16 Y101.16 E87.94962
G0 F15000 X101.726 Y101.16
G1 F3600 X118.84 Y118.274 E88.75461
G0 F15000 X118.84 Y117.709
G1 F3600 X102.291 Y101.16 E89.53303
G0 F15000 X102.857 Y101.16
G1 F3600 X118.84 Y117.143 E90.28482
G0 F15000 X118.84 Y116.577
G1 F3600 X103.423 Y101.16 E91.00999
G0 F15000 X103.989 Y101.16
G1 F3600 X118.84 Y116.011 E91.70853
G0 F15000 X118.84 Y115.446
G1 F3600 X104.554 Y101.16 E92.3805
G0 F15000 X105.12 Y101.16
G1 F3600 X118.84 Y114.88 E93.02585
G0 F15000 X118.84 Y114.314
G1 F3600 X105.686 Y101.16 E93.64457
G0 F15000 X106.251 Y101.16
G1 F3600 X118.84 Y113.749 E94.23672
G0 F15000 X118.84 Y113.183
G1 F3600 X106.817 Y101.16 E94.80224
G0 F15000 X107.383 Y101.16
G1 F3600 X118.84 Y112.617 E95.34115
G0 F15000 X118.84 Y112.052
G1 F3600 X107.948 Y101.16 E95.85347
G0 F15000 X108.514 Y101.16
G1 F3600 X118.84 Y111.486 E96.33918
G0 F15000 X118.84 Y110.92
G1 F3600 X109.08 Y101.16 E96.79826
G0 F15000 X109.645 Y101.16
G1 F3600 X118.84 Y110.355 E97.23076
G0 F15000 X118.84 Y109.789
G1 F3600 X110.211 Y101.16 E97.63664
G0 F15000 X110.777 Y101.16
G1 F3600 X118.84 Y109.223 E98.0159
G0 F15000 X118.84 Y108.658
G1 F3600 X111.342 Y101.16 E98.36858
G0 F15000 X111.908 Y101.16
G1 F3600 X118.84 Y108.092 E98.69464
G0 F15000 X118.84 Y107.526
G1 F3600 X112.474 Y101.16 E98.99408
G0 F15000 X113.04 Y101.16
G1 F3600 X118.84 Y106.961 E99.26692
G0 F15000 X118.84 Y106.395
G1 F3600 X113.605 Y101.16 E99.51316
G0 F15000 X114.171 Y101.16
G1 F3600 X118.84 Y105.829 E99.73277
G0 F15000 X118.84 Y105.263
G1 F3600 X114.737 Y101.16 E99.92577
G0 F15000 X115.302 Y101.16
G1 F3600 X118.84 Y104.698 E100.09218
G0 F15000 X118.84 Y104.132
G1 F3600 X115.868 Y101.16 E100.23198
G0 F15000 X116.434 Y101.16
G1 F3600 X118.84 Y103.566 E100.34515
G0 F15000 X118.84 Y103.001
G1 F3600 X116.999 Y101.16 E100.43174
G0 F15000 X117.565 Y101.16
G1 F3600 X118.84 Y102.435 E100.49171
G0 F15000 X118.84 Y101.869
G1 F3600 X118.131 Y101.16 E100.52506
G0 F15000 X118.696 Y101.16
G1 F3600 X118.84 Y101.304 E100.53184
;MESH:NONMESH
G0 F300 X118.84 Y101.304 Z0.8
G0 F15000 X119.3 Y101.304
G0 X119.228 Y119.228
G0 X110 Y119.4
;TIME_ELAPSED:122.552984
;LAYER:3
;TYPE:WALL-INNER
;MESH:20mm_cube.stl
G1 F3600 X119.4 Y119.4 E100.84448
G1 X119.4 Y100.6 E101.46977
G1 X100.6 Y100.6 E102.09506
G1 X100.6 Y119.4 E102.72035
G1 X110 Y119.4 E103.033
G0 F15000 X110 Y119.8
;TYPE:WALL-OUTER
G1 F3600 X119.8 Y119.8 E103.35895
G1 X119.8 Y100.2 E104.01085
G1 X100.2 Y100.2 E104.66275
G1 X100.2 Y119.8 E105.31464
G1 X110 Y119.8 E105.64059
G0 F15000 X110 Y119.04
;TYPE:SKIN
G1 F3600 X100.96 Y119.04 E105.94127
G1 X100.96 Y100.96 E106.54261
G1 X119.04 Y100.96 E107.14395
G1 X119.04 Y119.04 E107.74529
G1 X110 Y119.04 E108.04597
G0 F15000 X110 Y119.3
G0 X118.748 Y119.3
G0 X118.748 Y118.84
G1 F3600 X118.84 Y118.748 E108.05029
G0 F15000 X118.84 Y118.182
G1 F3600 X118.182 Y118.84 E108.08124
G0 F15000 X117.617 Y118.84
G1 F3600 X118.84 Y117.617 E108.13877
G0 F15000 X118.84 Y117.051
G1 F3600 X117.051 Y118.84 E108.22292
